packages/core/assets/Icons/tune.svg

<svg viewBox="0 0 20 20" fill="none" xmlns="http://www.w3.org/2000/svg">
<path d="M10 17.5C9.76389 17.5 9.56597 17.4201 9.40625 17.2604C9.24653 17.1007 9.16667 16.9028 9.16667 16.6667V13.3333C9.16667 13.0972 9.24653 12.8993 9.40625 12.7396C9.56597 12.5799 9.76389 12.5 10 12.5C10.2361 12.5 10.434 12.5799 10.5938 12.7396C10.7535 12.8993 10.8333 13.0972 10.8333 13.3333V14.1667H16.6667C16.9028 14.1667 17.1007 14.2465 17.2604 14.4062C17.4201 14.566 17.5 14.7639 17.5 15C17.5 15.2361 17.4201 15.434 17.2604 15.5938C17.1007 15.7535 16.9028 15.8333 16.6667 15.8333H10.8333V16.6667C10.8333 16.9028 10.7535 17.1007 10.5938 17.2604C10.434 17.4201 10.2361 17.5 10 17.5ZM3.33333 15.8333C3.09722 15.8333 2.89931 15.7535 2.73958 15.5938C2.57986 15.434 2.5 15.2361 2.5 15C2.5 14.7639 2.57986 14.566 2.73958 14.4062C2.89931 14.2465 3.09722 14.1667 3.33333 14.1667H6.66667C6.90278 14.1667 7.10069 14.2465 7.26042 14.4062C7.42014 14.566 7.5 14.7639 7.5 15C7.5 15.2361 7.42014 15.434 7.26042 15.5938C7.10069 15.7535 6.90278 15.8333 6.66667 15.8333H3.33333ZM6.66667 12.5C6.43056 12.5 6.23264 12.4201 6.07292 12.2604C5.91319 12.1007 5.83333 11.9028 5.83333 11.6667V10.8333H3.33333C3.09722 10.8333 2.89931 10.7535 2.73958 10.5938C2.57986 10.434 2.5 10.2361 2.5 10C2.5 9.76389 2.57986 9.56597 2.73958 9.40625C2.89931 9.24653 3.09722 9.16667 3.33333 9.16667H5.83333V8.33333C5.83333 8.09722 5.91319 7.89931 6.07292 7.73958C6.23264 7.57986 6.43056 7.5 6.66667 7.5C6.90278 7.5 7.10069 7.57986 7.26042 7.73958C7.42014 7.89931 7.5 8.09722 7.5 8.33333V11.6667C7.5 11.9028 7.42014 12.1007 7.26042 12.2604C7.10069 12.4201 6.90278 12.5 6.66667 12.5ZM10 10.8333C9.76389 10.8333 9.56597 10.7535 9.40625 10.5938C9.24653 10.434 9.16667 10.2361 9.16667 10C9.16667 9.76389 9.24653 9.56597 9.40625 9.40625C9.56597 9.24653 9.76389 9.16667 10 9.16667H16.6667C16.9028 9.16667 17.1007 9.24653 17.2604 9.40625C17.4201 9.56597 17.5 9.76389 17.5 10C17.5 10.2361 17.4201 10.434 17.2604 10.5938C17.1007 10.7535 16.9028 10.8333 16.6667 10.8333H10ZM13.3333 7.5C13.0972 7.5 12.8993 7.42014 12.7396 7.26042C12.5799 7.10069 12.5 6.90278 12.5 6.66667V3.33333C12.5 3.09722 12.5799 2.89931 12.7396 2.73958C12.8993 2.57986 13.0972 2.5 13.3333 2.5C13.5694 2.5 13.7674 2.57986 13.9271 2.73958C14.0868 2.89931 14.1667 3.09722 14.1667 3.33333V4.16667H16.6667C16.9028 4.16667 17.1007 4.24653 17.2604 4.40625C17.4201 4.56597 17.5 4.76389 17.5 5C17.5 5.23611 17.4201 5.43403 17.2604 5.59375C17.1007 5.75347 16.9028 5.83333 16.6667 5.83333H14.1667V6.66667C14.1667 6.90278 14.0868 7.10069 13.9271 7.26042C13.7674 7.42014 13.5694 7.5 13.3333 7.5ZM3.33333 5.83333C3.09722 5.83333 2.89931 5.75347 2.73958 5.59375C2.57986 5.43403 2.5 5.23611 2.5 5C2.5 4.76389 2.57986 4.56597 2.73958 4.40625C2.89931 4.24653 3.09722 4.16667 3.33333 4.16667H10C10.2361 4.16667 10.434 4.24653 10.5938 4.40625C10.7535 4.56597 10.8333 4.76389 10.8333 5C10.8333 5.23611 10.7535 5.43403 10.5938 5.59375C10.434 5.75347 10.2361 5.83333 10 5.83333H3.33333Z" fill="currentColor"/>
</svg>

<svg xmlns="http://www.w3.org/2000/svg" width="20" height="20" fill="none" viewBox="0 0 20 20">
  <path fill="#201F1F" d="M10 17.5a.806.806 0 0 1-.594-.24.806.806 0 0 1-.24-.593v-3.334c0-.236.08-.434.24-.593.16-.16.358-.24.594-.24s.434.08.594.24c.16.16.24.357.24.593v.834h5.833c.236 0 .434.08.593.24.16.159.24.357.24.593s-.08.434-.24.594a.806.806 0 0 1-.593.24h-5.834v.833c0 .236-.08.434-.24.593a.807.807 0 0 1-.593.24Zm-6.667-1.667a.806.806 0 0 1-.593-.24A.807.807 0 0 1 2.5 15c0-.236.08-.434.24-.594.16-.16.357-.24.593-.24h3.334c.236 0 .434.08.593.24.16.16.24.358.24.594s-.08.434-.24.594a.806.806 0 0 1-.593.24H3.333ZM6.667 12.5a.806.806 0 0 1-.594-.24.806.806 0 0 1-.24-.593v-.834h-2.5a.806.806 0 0 1-.593-.24A.807.807 0 0 1 2.5 10c0-.236.08-.434.24-.594.16-.16.357-.24.593-.24h2.5v-.833c0-.236.08-.434.24-.593.16-.16.358-.24.594-.24s.434.08.593.24c.16.16.24.357.24.593v3.334c0 .236-.08.434-.24.593a.806.806 0 0 1-.593.24ZM10 10.833a.806.806 0 0 1-.594-.24.807.807 0 0 1-.24-.593c0-.236.08-.434.24-.594.16-.16.358-.24.594-.24h6.667c.236 0 .434.08.593.24.16.16.24.358.24.594s-.08.434-.24.594a.806.806 0 0 1-.593.24H10ZM13.333 7.5a.806.806 0 0 1-.593-.24.806.806 0 0 1-.24-.593V3.333c0-.236.08-.434.24-.593.16-.16.357-.24.593-.24s.434.08.594.24c.16.16.24.357.24.593v.834h2.5c.236 0 .434.08.593.24.16.159.24.357.24.593s-.08.434-.24.594a.806.806 0 0 1-.593.24h-2.5v.833c0 .236-.08.434-.24.593a.806.806 0 0 1-.594.24Zm-10-1.667a.806.806 0 0 1-.593-.24A.806.806 0 0 1 2.5 5c0-.236.08-.434.24-.594.16-.16.357-.24.593-.24H10c.236 0 .434.08.594.24.16.16.24.358.24.594s-.08.434-.24.594a.807.807 0 0 1-.594.24H3.333Z"/>
</svg>
